X:1764
T:A Prize For The Ladies
M:C|
L:1/8
N:"collected by Casey"
B:O'Neill's 1764
R:Hornpipe
Z:"Transcribed by Bob Safranek, rjs@gsp.org"
K:G
   ((3DEF) | GABG   AGEG  | c2 ce  dcAB | GABG  AGEG |  AGAB A2 ((3DEF) |
             GABG   AGEG  | c2 ce  dcAB | Ggfe  dcAc | B2 G2 G2        :|
|: ((3DEF) | GFGB d2 (de) |  fefg fe d2 | edef ed c2 |  Bgfe    dcBA    |
             GFGB d2 (de) |  fefg  fedc | dgfe  dcAc | B2 G2 G2        :|


